X:77
T:Harlyquin Ranger
M:6/8
L:1/8
B:Thompson's Compleat Collection of 200 Favourite Country Dances, vol. 1 (London, 1757)
Z:Transcribed and edited by Fynnian Titford-Mock, 2007
Z:abc's:AK/Fiddler's Companion
K:Bb
B/A/|BFD B,DF|Bdf b2f|bfd gec|A/B/cc "tr"c2 B/A/|BFD B,DF|Bdf b2b|
Bff fdd|dBB B2::d|.eg/f/e/d/ .cf/e/d/c/|.Be/d/c/B/ AFF|.eg/f/e/d/ .cf/e/d/c/|FBB B2:|

